X:103
T:Miss Menzies of Culdare's Strathspey
S:Museum for the German Flute v4 p49
M:4/4
L:1/8
Q:1/4=112
K:D
f/e/ |dA B/A/G/F/ dAdf | fA/f/ B/A/G/F/ {F}E2 Ef/e/ |dA B/A/G/F/ A>Bd>b     | afe>f  d2d:|
b/c'/|d'abd'      a>fdf| edfd              B2 Bb/c'/|d'abd'      a>fdf      |Te>def  d2d
b/c'/|d'abd'      afdf |Tedfd              B2 B>d   |A>Bde       d>e dd'/c'/| afTe>f d2d|]

